X:1
T:Sang paa Vandet
T:Sang paa Vandet
T:Joh. D. Behrens's Sangkvartet tilegnet
T:Halfdan Kjerulf
T:J. L. Heiberg
C:Halfdan Kjerulf
Z:J. L. Heiberg
%%score [ 1 2 3 4 ]
L:1/8
Q:1/4=92
M:6/8
K:F
V:1 treble-8 nm="T1"
V:2 treble-8 nm="T2"
V:3 bass nm="B1"
V:4 bass nm="B2"
V:1
"^Andante"!p! A2 G A2 B | c3 c3 | d2 c d2 B | c3 c3 | c2 c c2 c |!<(! c3 d3!<)! |!mf! e2 f e2 d | %7
w: 1.Nat- ten er saa|stil- le,|Nat- ten er saa|stil- le,|Nat- ten er saa|stil- le,|Luf- ten er saa|
w: 2.Bøl- gens Me- lo-|di- er,|Bøl- gens Me- lo-|di- er,|Bøl- gens Me- lo-|di- er|vug- ge Hjer- tet|
!>(! c3- c3!>)! |!pp! c2 c!<(! c2 c!<)! |!>(! (c2 d)!>)! c3 |!p! c2 c!<(! c2 c!<)! | %11
w: klar. _|Dug- gens Per- ler|tril- * le,|Maa- nens Straa- ler|
w: ind. _|Suk og Kla- ge|ti- * er,|Suk og Kla- ge|
!>(! (c2 f)!>)! c3 |!mf! e3 f3 | ^c2 c d2 d |!>(! d2 c!>)! c2 c | c3- c3 |!p! (d2 c) (d2 c) | %17
w: spil- * le,|Maa- nenes|Straa- ler spil- le|hen- ad Sø- ens|Glar, _|hen- * ad _|
w: ti- * er,|Vin- dens|Pust be- fri- er|det be- tyng- te|Sind, _|det _ be- *|
 d3 d3 | c3- c3- | c3- c3 |] %20
w: Sø- ens|Glar. _|_ _|
w: tyng- te|Sind. _|_ _|
V:2
!p! F2 C F2 G | A3 A3 | B2 A B2 B | A3 A3 | A2 G A2 B |!<(! c3 c3!<)! |!mf! c2 c =B2 B | %7
w: 1.Nat- ten er saa|stil- le,|Nat- ten er saa|stil- le,|Nat- ten er saa|stil- le,|Luf- ten er saa|
w: 2.Bøl- gens Me- lo-|di- er,|Bøl- gens Me- lo-|di- er,|Bøl- gens Me- lo-|di- er|vug- ge Hjer- tet|
!>(! G3- G3!>)! |!pp! B2 A!<(! (GA) B!<)! |!>(! A3!>)! A3 |!p! B2 A!<(! (GA) B!<)! | %11
w: klar. _|Dug- gens Per- * ler|tril- le,|Maa- nens Straa- * ler|
w: ind. _|Suk og Kla- * ge|ti- er,|Suk og Kla- * ge|
!>(! A3!>)! A3 |!mf! c3 c3 | (GA) B (AG) F |!>(! B2 A!>)! (GA) B | A3- A3 |!p! (B2 A) (B2 A) | %17
w: spil- le,|Maa- nenes|Straa- * ler spil- * le|hen- ad Sø- * ens|Glar, _|hen- * ad _|
w: ti- er,|Vin- dens|Pust _ be- fri- * er|det be- tyng- * te|Sind, _|det _ be- *|
 B3 B3 | A2 G A2 G | A3- A3 |] %20
w: Sø- ens|hen- ad Sø- ens|Glar. _|
w: tyng- te|det be- tyng- te|Sind. _|
V:3
 z6 |!p! F,2 C, F,2 G, | (A,2 A,) A,2 F, | F,3 F,3 | F,2 C, F,2 G, |!<(! A,3 (A,2 _A,)!<)! | %6
w: |1.Nat- ten er saa|stil- * le, saa|stil- le,|Nat- ten er saa|stil- le, _|
w: |2.Bøl- gens Me- lo-|di- er, Me- lo-|di- er,|Bøl- gens Me- lo-|di- er _|
!mf! G,2 =A, G,2 F, |!>(! E,3- E,3!>)! |!pp! G,2 A,!<(! (B,A,) G,!<)! |!>(! A,3!>)! C3 | %10
w: Luf- ten er saa|klar. _|Dug- gens Per- * ler|tril- le,|
w: vug- ge Hjer- tet|ind. _|Suk og Kla- * ge|ti- er,|
!mf! G,2 A,!<(! (B,A,) G,!<)! |!>(! A,3!>)! C3 |!f! (G,A,B,) (A,G,F,) | (E,F,) G, (F,E,) D, | %14
w: Maa- nens Straa- * ler|spil- le,|Maa- * * nenes _ _|Straa- * ler spil- * le|
w: Suk og Kla- * ge|ti- er,|Vin- * * dens _ _|Pust _ be- fri- * er|
!>(! (C,G,) A,!>)! (B,A,) G, | F,3- F,3 |!p! F,3 F,3 | F,3 F,3 | F,2 C, F,2 C, | F,3- F,3 |] %20
w: hen- * ad Sø- * ens|Glar, _|hen- ad|Sø- ens|hen- ad Sø- ens|Glar. _|
w: det _ be- tyng- * te|Sind, _|det be-|tyng- te|det be- tyng- te|Sind. _|
V:4
 z6 | z6 |!p! B,,2 F,, B,,2 D, | (F,2 C,) (F,2 C,) | F,2 C, F,2 C, |!<(! (F,2 E,) (F,2 _A,)!<)! | %6
w: ||Nat- ten er saa|stil- * le, _|Nat- ten er saa|stil- * le, _|
w: ||Bøl- gens Me- lo-|di- * er, _|Bøl- gens Me- lo-|di- * er _|
 z2 z!mf! G,,2 G,, |!>(! C,2 G,, C,3!>)! |!pp! E,2 C,!<(! E,2 C,!<)! |!>(! (F,2 C,)!>)! (F,2 C,) | %10
w: Luf- ten|er saa klar.|Dug- gens Per- ler|tril- * le, _|
w: vug- ge|Hjer- tet ind.|Suk og Kla- ge|ti- * er, _|
!p! E,2 C,!<(! E,2 C,!<)! |!>(! (F,2 C,)!>)! (F,2 C,) |!mf! C,3 F,3 | A,,2 A,, (D,E,) F, | %14
w: Maa- nens Straa- ler|spil- * le, _|Maa- nenes|Straa- ler spil- * le|
w: Suk og Kla- ge|ti- * er, _|Vin- dens|Pust be- fri- * er|
!>(! E,2 C,!>)! C,2 C, | F,3- F,3 |!p! (B,,2 F,,) (B,,2 F,,) | B,,3 D,3 | F,2 C, F,2 C, | %19
w: hen- ad Sø- ens|Glar, _|hen- * ad _|Sø- ens|hen- ad Sø- ens|
w: det be- tyng- te|Sind, _|det _ be- *|tyng- te|det be- tyng- te|
 F,,3- F,,3 |] %20
w: Glar. _|
w: Sind. _|

